src/assets/images/btn-arrow.svg

<svg width="39" height="28" viewBox="0 0 39 28" fill="none" xmlns="http://www.w3.org/2000/svg">
<path d="M0.172852 18.7599H9.22879L10.4693 15.0109H1.76652L0.172852 18.7599Z" fill="white"/>
<path d="M12.4327 8.93536H6.94624L5.35217 12.6844H11.1917L12.4327 8.93536Z" fill="white"/>
<path d="M38.3377 13.8476L30.9538 0.319153L29.0175 8.93538H18.6992H14.13L11.0242 18.7599H11.2208H18.6992H26.8096L24.8737 27.3761L38.3377 13.8476Z" fill="white"/>
</svg>

<svg width="39" height="28" fill="none" xmlns="http://www.w3.org/2000/svg"><path d="M.173 18.76h9.056l1.24-3.75H1.767L.173 18.76ZM12.433 8.935H6.946l-1.594 3.75h5.84l1.24-3.75ZM38.338 13.848 30.954.319l-1.937 8.616H14.13l-3.106 9.825H26.81l-1.935 8.616 13.464-13.528Z" fill="#fff"/></svg>
